X:1
T:Partita VI Gigue
T:BWV 830
T:J. S. Bach
%%score { ( 1 3 4 ) | 2 }
L:1/8
Q:1/4=144
M:8/4
K:G
V:1 treble nm="Harp"
V:3 treble 
V:4 treble 
V:2 bass 
V:1
"^Vivace" z16 | z16 | z2 z B ^c3 ^A g3 e f3 ^d | %3
 c'3 ^a b3 e d2 z2 B/4^c/4d/4c/4d/4c/4d/4c/4d/4c/4d/4c/4d/4c/4d/4c/4 | %4
 B^c d2- d=F d2- dB ^B2- B_E B2- | BA =B2- Bf g2- gG A2- Ae f2- | fFGc- cA B2- B^G A2- A=D d2- | %7
 dB c2- cA B2- BE e2- e^c ^d2 | e3 g f3 b e3 a ^c3 g | f3 f e3 a d3 g B3 =f | %10
 e/d/c/d/ e2 A2 d2 G2 c2 F2 B2 | E2 A2- AD G2- GF/E/ c2- cB/^A/ e2- | %12
 ed/^c/dc/B/ cd/e/dc/B/ ^A^G/F/ g2- ge f2- | f^d e2- eA a2- af g2- ge f2- | %14
 fB b2- b^gg/4^a/4b/4a/4b/4a/4b/4a/4 b2 =g2 e2 f2 | ^d2 e2- ea ^g2 a2 f2 =d2 e2 | %16
 ^c2 d2- dg f2 gd g2- ge f2- | f^d e2- e^c d2 ef/g/a/b/c' =de/=f/g/a/b | %18
 cd/e/=f/g/a Bc/d/e/f/d c3 B c3 c | B2 z2 A3 F E3 c d3 B | %20
 ^g2 z2 a3 ^d e=d/c/[BB]/A/G z A/B/c/B/A | G2 G2- G2 G2- G2 F2- F2 =F2- | %22
 F2 E2- E2 E2- E2 ^D2- D2 G2 | z2 A2 z2 ^A2 z B/F/^DB,/^A,/ B,/D/F B2 | z16 | z16 | %26
 z2 z B ^c3 ^A g3 e f3 ^d | c'3 ^a b3 e d2 z2 B/4^c/4d/4c/4d/4c/4d/4c/4d/4c/4d/4c/4d/4c/4d/4c/4 | %28
 B^c d2- d=F d2- dB ^B2- B_E B2- | BA =B2- Bf g2- gG A2- Ae f2- | fFGc- cA B2- B^G A2- A=D d2- | %31
 dB c2- cA B2- BE e2- e^c ^d2 | e3 g f3 b e3 a ^c3 g | f3 f e3 a d3 g B3 =f | %34
 e/d/c/d/ e2 A2 d2 G2 c2 F2 B2 | E2 A2- AD G2- GF/E/ c2- cB/^A/ e2- | %36
 ed/^c/dc/B/ cd/e/dc/B/ ^A^G/F/ g2- ge f2- | f^d e2- eA a2- af g2- ge f2- | %38
 fB b2- b^gg/4^a/4b/4a/4b/4a/4b/4a/4 b2 =g2 e2 f2 | ^d2 e2- ea ^g2 a2 f2 =d2 e2 | %40
 ^c2 d2- dg f2 gd g2- ge f2- | f^d e2- e^c d2 ef/g/a/b/c' =de/=f/g/a/b | %42
 cd/e/=f/g/a Bc/d/e/f/d c3 B c3 c | B2 z2 A3 F E3 c d3 B | %44
 ^g2 z2 a3 ^d e=d/c/[BB]/A/G z A/B/c/B/A | G2 G2- G2 G2- G2 F2- F2 =F2- | %46
 F2 E2- E2 E2- E2 ^D2- D2 G2 | z2 A2 z2 ^A2 z B/F/^DB,/^A,/ B,/D/F B2 | z16 | z16 | %50
 z2 z F E3 G[I:staff +1] ^A,3 ^C B,3 D | %51
 ^E,3 G, F,3 ^A, B,2[I:staff -1] z2 B,/4^C/4D/4C/4D/4C/4D/4C/4D/4C/4D/4C/4D/4C/4D/4C/4 | %52
 DGFE DF B,2- B,^G, =F2- FD ^G2- | G=FED CE A,2- A,F, ^D2- DC^FC | z2 z B A3 c ^D3 F E3 ^^F | %55
 ^A,3 C B,3 ^D E2 z2 E/4F/4G/4F/4G/4F/4G/4F/4G/4F/4G/4F/4G/4F/4G/4F/4 | %56
 GE e2- e^c d2- d/c/Bc/B/A a/g/fg/f/e | fA d2- dB c2- c/B/AB/A/G g/=f/ef/e/d | %58
 e3 e =f3 d e3 c d3 B | c3 A B3 ^G A3 B c2 ^c2 | ^d2 e2 d2 e2 f3 b a3 c' | %61
 ^d3 f e3 g ^A3 ^B =B3 d | e2 z2 e/4f/4g/4f/4g/4f/4g/4f/4g/4f/4g/4f/4g/4f/4g/4f/4 g4- gd =f2- | %63
 f=fed c4- ccBA ^GB d2- | dBca daB^g a^d e2- ed e2- | e/^d/^cd/c/B b/a/ga/g/f g3 g c3 =d | %66
 e2 z2 z4 z2 z e c'3 a | b3 g a3 f g4 gf/e/f/g/a | ^dbag fa c'2- c'cBA GB e2- | %69
 eGFE ^DF A2 AFGe AeA^d | ecBA G B3- B2 _B2- BG ^c2- | c_BAG =F A3- A2 _A2- AF =B2- | %72
 B^GAE ^F3 ^D c3 A B3 G | ^e3 ^d =e3 A G2 z2 E/4F/4G/4F/4G/4F/4G/4F/4G/4F/4G/4F/4G/4F/4G/4F/4 | %74
 E2 ^G2- G2 [GB]2- [GB]2 [EA]2- [EA]2 [GBd]2- | [GBd]2 [Ac]2- [Ac]2 [c^d]2 z e/B/^GE/^D/ E/G/B e2 | %76
 z16 | z16 | z z2 F E3 G[I:staff +1] ^A,3 ^C B,3 D | %79
 ^E,3 G, F,3 ^A, B,2[I:staff -1] z2 B,/4^C/4D/4C/4D/4C/4D/4C/4D/4C/4D/4C/4D/4C/4D/4C/4 | %80
 DGFE DF B,2- B,^G, =F2- FD ^G2- | G=FED CE A,2- A,F, ^D2- DC^FC | z2 z B A3 c ^D3 F E3 ^^F | %83
 ^A,3 C B,3 ^D E2 z2 E/4F/4G/4F/4G/4F/4G/4F/4G/4F/4G/4F/4G/4F/4G/4F/4 | %84
 GE e2- e^c d2- d/c/Bc/B/A a/g/fg/f/e | fA d2- dB c2- c/B/AB/A/G g/=f/ef/e/d | %86
 e3 e =f3 d e3 c d3 B | c3 A B3 ^G A3 B c2 ^c2 | ^d2 e2 d2 e2 f3 b a3 c' | %89
 ^d3 f e3 g ^A3 ^B =B3 d | e2 z2 e/4f/4g/4f/4g/4f/4g/4f/4g/4f/4g/4f/4g/4f/4g/4f/4 g4 ^gd =f2- | %91
 f=fed c4- ccBA ^GB d2- | dBca daB^g a^d e2- ed e2- | e/^d/^cd/c/B b/a/ga/g/f g3 g c3 =d | %94
 e2 z2 z4 z2 z e c'3 a | b3 g a3 f g4 gf/e/f/g/a | ^dbag fa c'2- c'cBA GB e2- | %97
 eGFE ^DF A2 AFGe AeA^d | ecBA G B3- B2 _B2- BG ^c2- | c_BAG =F A3- A2 _A2- AF =B2- | %100
 B^GAE ^F3 ^D c3 A B3 G | ^e3 ^d =e3 A G2 z2 E/4F/4G/4F/4G/4F/4G/4F/4G/4F/4G/4F/4G/4F/4G/4F/4 | %102
 E2 ^G2- G2 [GB]2- [GB]2 [EA]2- [EA]2 [GBd]2- | %103
 [GBd]2 [Ac]2- [Ac]2 [c^d]2 z e/B/^GE/^D/ E/G/B !fermata!e2 |] %104
V:2
 z2 z[I:staff -1] E F3 ^D ^B3 A =B3 ^G | %1
 =f3 ^d e3 A G2[I:staff +1] z2[I:staff -1] E/4F/4G/4F/4G/4F/4G/4F/4G/4F/4G/4F/4G/4F/4G/4F/4 | %2
 EF G2- GE F2- F^D E2- EA, A2- | AF G2- GE F2- FB, B2- B^G ^A2 | B3 A ^G3 E A3 =G F3 D | %5
 G3 F E3 ^C F3 E ^D3 B, |[I:staff +1] z3 E, F,3 ^D, C3 A, B,3 ^G, | %7
 =F3 ^D E3 A, G,2 z2 E,/4F,/4G,/4F,/4G,/4F,/4G,/4F,/4G,/4F,/4G,/4F,/4G,/4F,/4G,/4F,/4 | %8
 E,E,, E,2- E,^C, D,2- D,/C,/B,,C,/B,,/A,, A,/G,/F,G,/F,/E, | %9
 D,D,, D,2- D,B,, C,2- C,/B,,/A,,B,,/A,,/G,, G,/=F,/E,F,/E,/D, | %10
 C,G, C2- CA, B,2- B,G, A,2- A,F, G,2- | G,E, F,2 G,2 E,2 ^C,2 ^D,2 E,2 C,2 | %12
 ^A,,2 B,,2 E,2 ^E,2 F,2 z2 ^A,2 z2 | B,2 z2 z4 E,2 z2 D,2 z2 | %14
 G,3 F, E,3 F, B,B,, B,2- B,^G, A,2- | A,/^G,/F,G,/F,/E, E/D/^CD/C/B, A,A,, A,2- A,F, =G,2- | %16
 G,/F,/E,F,/E,/D, D/C/B,C/B,/A, G,B, E2 A,2 D2 | G,2 C2 F,2 B,2 E,B, C2- CA, B,2- | %18
 B,^G, A,2- A,F, G,2 A,=G,/F,/G,F,/E,/ F,G,/A,/G,/F,/E, | %19
 ^D,B,, E,2- E,A,, B,,2- B,,^G,, A,,2- A,,D,, =D,2- | %20
 D,B,, C,2- C,A,, B,,2- B,,E,, E,2- E,^C, ^D,2 | E,3 D ^C3 A, D,3 =C B,3 G, | %22
 C,3 B, A,3 F, B,,3 A, G,3 E, | ^D,3 B, G,3 E, B,,8 | z2 z[I:staff -1] E F3 ^D ^B3 A =B3 ^G | %25
 =f3 ^d e3 A G2[I:staff +1] z2[I:staff -1] E/4F/4G/4F/4G/4F/4G/4F/4G/4F/4G/4F/4G/4F/4G/4F/4 | %26
 EF G2- GE F2- F^D E2- EA, A2- | AF G2- GE F2- FB, B2- B^G ^A2 | B3 A ^G3 E A3 =G F3 D | %29
 G3 F E3 ^C F3 E ^D3 B, |[I:staff +1] z3 E, F,3 ^D, C3 A, B,3 ^G, | %31
 =F3 ^D E3 A, G,2 z2 E,/4F,/4G,/4F,/4G,/4F,/4G,/4F,/4G,/4F,/4G,/4F,/4G,/4F,/4G,/4F,/4 | %32
 E,E,, E,2- E,^C, D,2- D,/C,/B,,C,/B,,/A,, A,/G,/F,G,/F,/E, | %33
 D,D,, D,2- D,B,, C,2- C,/B,,/A,,B,,/A,,/G,, G,/=F,/E,F,/E,/D, | %34
 C,G, C2- CA, B,2- B,G, A,2- A,F, G,2- | G,E, F,2 G,2 E,2 ^C,2 ^D,2 E,2 C,2 | %36
 ^A,,2 B,,2 E,2 ^E,2 F,2 z2 ^A,2 z2 | B,2 z2 z4 E,2 z2 D,2 z2 | %38
 G,3 F, E,3 F, B,B,, B,2- B,^G, A,2- | A,/^G,/F,G,/F,/E, E/D/^CD/C/B, A,A,, A,2- A,F, =G,2- | %40
 G,/F,/E,F,/E,/D, D/C/B,C/B,/A, G,B, E2 A,2 D2 | G,2 C2 F,2 B,2 E,B, C2- CA, B,2- | %42
 B,^G, A,2- A,F, G,2 A,=G,/F,/G,F,/E,/ F,G,/A,/G,/F,/E, | %43
 ^D,B,, E,2- E,A,, B,,2- B,,^G,, A,,2- A,,D,, =D,2- | %44
 D,B,, C,2- C,A,, B,,2- B,,E,, E,2- E,^C, ^D,2 | E,3 D ^C3 A, D,3 =C B,3 G, | %46
 C,3 B, A,3 F, B,,3 A, G,3 E, | ^D,3 B, G,3 E, B,,8 | z2 z B, A,3 C ^D,3 F, E,3 G, | %49
 ^A,,3 C, B,,3 ^D, E,2 z2 E,/4F,/4G,/4F,/4G,/4F,/4G,/4F,/4G,/4F,/4G,/4F,/4G,/4F,/4G,/4F,/4 | %50
 G,CB,A,G,B, E,2- E,^C, D,2- D,F, B,,2- | B,,^G,, ^A,,2- A,,^C, E,2- E,C,D,B, E,B,F,^A, | %52
 B,4- B,A,^G,F, E,3 D, D,/4C,/4D,/4C,/4D,/4C,/4D,/4C,/4D,/4C,/4D,/4C,/4 B,, | %53
 A,,2 A,2- A,G,F,E, D,3 C, C,/4B,,/4C,/4B,,/4C,/4B,,/4C,/4B,,/4C,/4B,,/4C,/4B,,/4 A,, | %54
 G,,B,,E,D,C,E, A,,2- A,,F,, G,,2- G,,B,, E,,2- | %55
 E,,^C,, ^D,,2- D,,F,, A,,2- A,,F,,G,,E, A,,E,B,,^D, | E,- E,2 G, F,3 B, E,3 A, ^C,E,A,,C, | %57
 D,3 F, E,3 A, D,3 G,B,,D,G,,B,, | C,E, A,2 D,2 G,2 C,2 =F,2 B,,2 E,2 | %59
 A,,2 D,2- D,^G,, C,2- C,B,,/A,,/ =F,2- F,E,/^D,/ A,2- | %60
 A,G,/F,/G,F,/E,/ F,G,/A,/G,F,/E,/ B,2 z2 z4 | z16 | z8 z2 z E D3 =F | %63
 ^G,3 B, A,3 C ^D,3 =F, E,3 G, | A,2 z2 B,4 C3 E A,3 C | F,3 A, ^D,F,B,,D, E,3 E,, E,3 G, | %66
 ^C,3 E, ^A,,C,F,,A,, B,,C,/^D,/E,/F,/G, =A,,B,,/=C,/=D,/E,/F, | %67
 G,,A,,/B,,/C,/D,/E, F,,G,,/A,,/B,,/A,,/B,, E,,3 E, A,,3 C, | B,,2 z2 z4 B,2 z2 z4 | %69
 B,,2 z2 z2 z B, C2 B,2 A,2 B,2 | %70
 E,4- E,D,^C,B,, A,,3 G,,E,,/4=F,,/4G,,/4F,,/4G,,/4F,,/4G,,/4F,,/4G,,/4F,,/4G,,/4F,,/4 E,, | %71
 D,,2 D,2- D,C,B,,A,, G,,3 =F,,D,,/4E,,/4F,,/4E,,/4F,,/4E,,/4F,,/4E,,/4F,,/4E,,/4F,,/4E,,/4 D,, | %72
 C,,2 z2 z2 z B,, E,2 z2 z2 z E, | A,2 z2 G,2 z2 C,3 B,, A,,2 B,,2 | %74
 E,,3 B, ^G,3 E, C,3 =F, D,3 B,, | ^G,,3 E, C,3 A,, E,,8 | z z2 B, A,3 C ^D,3 F, E,3 G, | %77
 ^A,,3 C, B,,3 ^D, E,2 z2 G,/4F,/4E,/4F,/4G,/4F,/4G,/4F,/4G,/4F,/4G,/4F,/4G,/4F,/4E,/4F,/4 | %78
 G,CB,A,G,B, E,2- E,^C, D,2- D,F, B,,2- | B,,^G,, ^A,,2- A,,^C, E,2- E,C,D,B, E,B,F,^A, | %80
 B,4- B,A,^G,F, E,3 D, B,,/4C,/4D,/4C,/4D,/4C,/4D,/4C,/4D,/4C,/4D,/4C,/4 B,, | %81
 A,,2 A,2- A,G,F,E, D,3 C, A,,/4B,,/4C,/4B,,/4C,/4B,,/4C,/4B,,/4C,/4B,,/4C,/4B,,/4 A,, | %82
 G,,B,,E,D,C,E, A,,2- A,,F,, G,,2- G,,B,, E,,2- | %83
 E,,^C,, ^D,,2- D,,F,, A,,2- A,,F,,G,,E, A,,E,B,,^D, | E,- E,2 G, F,3 B, E,3 A, ^C,E,A,,C, | %85
 D,3 F, E,3 A, D,3 G,B,,D,G,,B,, | C,E, A,2 D,2 G,2 C,2 =F,2 B,,2 E,2 | %87
 A,,2 D,2- D,^G,, C,2- C,B,,/A,,/ =F,2- F,E,/^D,/ A,2- | %88
 A,G,/F,/G,F,/E,/ F,G,/A,/G,F,/E,/ B,2 z2 z4 | z16 | z8 z2 z E D3 =F | %91
 ^G,3 B, A,3 C ^D,3 =F, E,3 G, | A,2 z2 B,4 C3 E A,3 C | F,3 A, ^D,F,B,,D, E,3 E,, E,3 G, | %94
 ^C,3 E, ^A,,C,F,,A,, B,,C,/^D,/E,/F,/G, =A,,B,,/=C,/=D,/E,/F, | %95
 G,,A,,/B,,/C,/D,/E, F,,G,,/A,,/B,,/A,,/B,, E,,3 E, A,,3 C, | B,,2 z2 z4 B,2 z2 z4 | %97
 B,,2 z2 z2 z B, C2 B,2 A,2 B,2 | %98
 E,4- E,D,^C,B,, A,,3 G,,E,,/4=F,,/4G,,/4F,,/4G,,/4F,,/4G,,/4F,,/4G,,/4F,,/4G,,/4F,,/4 E,, | %99
 D,,2 D,2- D,C,B,,A,, G,,3 =F,,D,,/4E,,/4F,,/4E,,/4F,,/4E,,/4F,,/4E,,/4F,,/4E,,/4F,,/4E,,/4 D,, | %100
 C,,2 z2 z2 z B,, E,2 z2 z2 z E, | A,2 z2 G,2 z2 C,3 B,, A,,2 B,,2 | %102
 E,,3 B, ^G,3 E, C,3 =F, D,3 B,, | ^G,,3 E, C,3 A,, !fermata!E,,8 |] %104
V:3
 x16 | x16 | x16 | x16 | x16 | x16 | E4 ^D3 F E3 c =F3 B | ^G3 A/F/ =G3 ^d e3 c A3 B | %8
 G2 B2 A2 B2 ^G2 A2- Ae A2- | A2 B2 G2 A2 F2 G2- Gd G2- | G3 E F3 D E3 C D3 B, | %11
 C3[I:staff +1] A, B,3 G, A,3 F, G,3 E, | F,4 G,2 ^G,2 F,2[I:staff -1] z[I:staff +1] B, C3 ^A, | %13
[I:staff -1] G3 E F3 ^D c3 ^A B3 E | %14
 D2 z2[I:staff +1] B,/4^C/4D/4C/4D/4C/4D/4C/4D/4C/4D/4C/4D/4C/4D/4C/4 B,2[I:staff -1] z d ^c3 F | %15
 B3 =d ^G2 z d ^c3 c B3 E | A3 =c F2 z c B3 B c3 A | B3 G A3 F G2 z E =F3 D | %18
 E3 C D2[I:staff +1] B,2 A,[I:staff -1]E A2- AE A2- | AG/F/G/F/E F3 ^D c3 A B3 ^G | %20
 =f3 ^d e3 A G2 z2 F4- | F^D E2- E_B, E2- E^C =D2- D_A, D2- | %22
 DB, C2- C[I:staff +1]F,[I:staff -1] C2- C z B,2- B,B, E2 | x16 | x16 | x16 | x16 | x16 | x16 | %29
 x16 | E4 ^D3 F E3 c =F3 B | ^G3 A/F/ =G3 ^d e3 c A3 B | G2 B2 A2 B2 ^G2 A2- Ae A2- | %33
 A2 B2 G2 A2 F2 G2- Gd G2- | G3 E F3 D E3 C D3 B, | C3[I:staff +1] A, B,3 G, A,3 F, G,3 E, | %36
 F,4 G,2 ^G,2 F,2[I:staff -1] z[I:staff +1] B, C3 ^A, |[I:staff -1] G3 E F3 ^D c3 ^A B3 E | %38
 D2 z2[I:staff +1] B,/4^C/4D/4C/4D/4C/4D/4C/4D/4C/4D/4C/4D/4C/4D/4C/4 B,2[I:staff -1] z d ^c3 F | %39
 B3 =d ^G2 z d ^c3 c B3 E | A3 =c F2 z c B3 B c3 A | B3 G A3 F G2 z E =F3 D | %42
 E3 C D2[I:staff +1] B,2 A,[I:staff -1]E A2- AE A2- | AG/F/G/F/E F3 ^D c3 A B3 ^G | %44
 =f3 ^d e3 A G2 z2 F4- | F^D E2- E_B, E2- E^C =D2- D_A, D2- | %46
 DB, C2- C[I:staff +1]F,[I:staff -1] C2- C z B,2- B,B, E2 | x16 | x16 | x16 | x16 | x16 | x16 | %53
 x16 | B,2[I:staff +1] G,2 G,2 F,2 F,2 B,2 B,2 G,2- | %55
 G,2 F,2- F,2[I:staff -1] z2 z2[I:staff +1] B,2 C2 B,2- | B,[I:staff -1] z z B A3 F ^G2 z2 z4 | %57
 z2 z A G3 E F2 z2 z4 | z G c2- cA B2- B^G A2- AF =G2- | GE =F2- FD E2- E2 D^G A3 =G | %60
 F2 B4 ^c2 ^dBAGFA =c2- | ccBAG BE z EGFE ^DF =A2- | AFGe AeB^d Ee=dc B4- | %63
 B4- BE A2- A2 z2 z2 z =F | E2 A2 =F2 D2 E3 c ^F3 G | A2 z2 z4 z ^A B2- B=A B2- | %66
 B/^A/^GA/G/F f/e/^de/d/^c dB g2- ge f2- | f^d e2- e^c d2 e=d/=c/B/c/d c4 | %68
 z2 z B A3 c ^D3 F E3 G |[I:staff +1] ^A,3 C B,3[I:staff -1] ^D E2 z2 F4 | G4 z2 E2- E ^C3- C G3- | %71
 G z z2 z2 D2- D B,3- B, =F3- | F2 C2 z[I:staff +1] A, B,2- B,^G, A,2- A,D, =D2- | %73
 DB, C2- CA, B,2- B,E,[I:staff -1] E2- E^C ^D2 | E D3- D D3- D C3- CB, F2- | F E3- E F3 z8 | x16 | %77
 x16 | x16 | x16 | x16 | x16 | B,2[I:staff +1] G,2 G,2 F,2 F,2 B,2 B,2 G,2- | %83
 G,2 F,2- F,2[I:staff -1] z2 z2[I:staff +1] B,2 C2 B,2- | B,[I:staff -1] z z B A3 F ^G2 z2 z4 | %85
 z2 z A G3 E F2 z2 z4 | z G c2- cA B2- B^G A2- AF =G2- | GE =F2- FD E2- E2 D^G A3 =G | %88
 F2 B4 ^c2 ^dBAGFA =c2- | ccBAG BE z EGFE ^DF =A2- | AFGe AeB^d Ee=dc B4- | %91
 B4- BE A2- A2 z2 z2 z =F | E2 A2 =F2 D2 E3 c ^F3 G | A2 z2 z4 z ^A B2- B=A B2- | %94
 B/^A/^GA/G/F f/e/^de/d/^c dB g2- ge f2- | f^d e2- e^c d2 e=d/=c/B/c/d c4 | %96
 z2 z B A3 c ^D3 F E3 G |[I:staff +1] ^A,3 C B,3[I:staff -1] ^D E2 z2 F4 | G4 z2 E2- E ^C3- C G3- | %99
 G z z2 z2 D2- D B,3- B, =F3- | F2 C2 z[I:staff +1] A, B,2- B,^G, A,2- A,D, =D2- | %101
 DB, C2- CA, B,2- B,E,[I:staff -1] E2- E^C ^D2 | E D3- D D3- D C3- CB, F2- | F E3- E F3 z8 |] %104
V:4
 x16 | x16 | x16 | x16 | x16 | x16 | x16 | x16 | x16 | x16 | x16 | x16 | x16 | x16 | x16 | x16 | %16
 x16 | x16 | x16 | x16 | x16 | x16 | x16 | x16 | x16 | x16 | x16 | x16 | x16 | x16 | x16 | x16 | %32
 x16 | x16 | x16 | x16 | x16 | x16 | x16 | x16 | x16 | x16 | x16 | x16 | x16 | x16 | x16 | x16 | %48
 x16 | x16 | x16 | x16 | x16 | x16 | x16 | x16 | x16 | x16 | x16 | x16 | x16 | x16 | x16 | x16 | %64
 x16 | x16 | x16 | x16 | x16 | x16 | z4 z4 E2- E2- E4- | E z z2 z4 D2- D2- D4- | D2 z2 z4 z8 | %73
 x16 | x16 | x16 | x16 | x16 | x16 | x16 | x16 | x16 | x16 | x16 | x16 | x16 | x16 | x16 | x16 | %89
 x16 | x16 | x16 | x16 | x16 | x16 | x16 | x16 | x16 | z4 z4 E2- E2- E4- | E z z2 z4 D2- D2- D4- | %100
 D2 z2 z4 z8 | x16 | x16 | x16 |] %104

